src/assets/images/prototype/produits-armoire/10-liquide.svg

<svg width="308" height="687" viewBox="0 0 308 687" fill="none" xmlns="http://www.w3.org/2000/svg">
<path d="M8.84181 163.554C16.827 131.192 88.1687 84.2268 122.841 64.7891H193.237C223.532 85.9779 286.748 135.395 297.255 163.554C310.389 198.752 285.698 215.563 273.615 265.996C261.532 316.429 294.103 532.345 297.255 565.967C300.407 599.589 280.444 650.022 273.615 663.155C266.785 676.289 168.021 679.966 154.887 679.966C141.754 679.966 37.2104 671.561 25.6528 663.155C14.0952 654.75 18.8236 641.616 8.84181 565.967C-1.13994 490.317 32.4823 361.608 37.2104 295.94C41.9384 230.272 -1.13972 204.005 8.84181 163.554Z" fill="white" stroke="#81EC40" stroke-width="13"/>
<path d="M121.789 35.8939V64.7878H191.134V35.8939L175.374 29.0644V7L138.6 7V29.0644L121.789 35.8939Z" fill="white" stroke="#81EC40" stroke-width="13"/>
</svg>

<svg width="308" height="687" fill="none" xmlns="http://www.w3.org/2000/svg"><path d="M8.842 163.554c7.985-32.362 79.327-79.327 113.999-98.765h70.396c30.295 21.189 93.511 70.606 104.018 98.765 13.134 35.198-11.557 52.009-23.64 102.442-12.083 50.433 20.488 266.349 23.64 299.971 3.152 33.622-16.811 84.055-23.64 97.188-6.83 13.134-105.594 16.811-118.728 16.811-13.133 0-117.677-8.405-129.234-16.811-11.558-8.405-6.83-21.539-16.811-97.188-9.982-75.65 23.64-204.359 28.368-270.027 4.728-65.668-38.35-91.935-28.368-132.386zm112.947-127.66v28.894h69.345V35.894l-15.76-6.83V7H138.6v22.064l-16.811 6.83z" fill="#fff" stroke="#81EC40" stroke-width="13"/></svg>
